!!!COM: Haydn, Franz Joseph
!!!OTL: String Quartet in D Major
!!!OPS: Opus 33
!!!ONM: No. 6
!!!OMD: Finale: Allegretto
!!!OMV: 4
!!!SCT: H III:42
!!!SCA: Thematisch-bibliographisches Werkevererzeichnis (A. van Hoboken)
!!!YOR: Richault Edition, volume 8
!!!ENC: Frances Bennion
!!!CDT: 1732/3/31/-1809/5/31/
!!!CNT: Oesterreich
!!!YEC: Copyright (c) 1994, 2000 Center for Computer Assisted Research in the Humanities
!!!YEM: Rights to all derivative editions reserved.
!!!YEM: Refer to licensing agreement for further details.
!!!YEN: United States of America
**kern	**kern	**kern	**kern
*k[f#c#]	*k[f#c#]	*k[f#c#]	*k[f#c#]
*D:	*D:	*D:	*D:
*clefF4	*clefC3	*clefF	*clefF
*M2/4	*M2/4	*M2/4	*M2/4
4.r	4.r	4.r	4.r
8r	8r	8r	8dd
=1	=1	=1	=1
8r	4.r	4.r	8.d
8D	.	.	.
.	.	.	32f#
.	.	.	32a
8E	.	.	8g
8C#	8A	8e	8e
=2	=2	=2	=2
8D	8A	8d	8f#
8GG	8B	8e	8g
8AA	8A	8c#	8e
8C#	8A	8e	8a
=3	=3	=3	=3
8D	8A	8f#	8f#
8BB	8f#	8d	8b
8E	8e	8c#	8a
8E	8d	8B	8g#
=4	=4	=4	=4
8AA	4d	4B	4g#
8A	.	.	.
8AA	8c#	8A	8a
8r	8r	8r	8ee
=5	=5	=5	=5
8r	8r	8r	[12..A
8C#	8A	8e	.
.	.	.	96A]
.	.	.	32c#
.	.	.	32e
.	.	.	32g
8D	8A	8f#	8f#
8r	8r	8r	8b
=6	=6	=6	=6
8r	8r	8r	8.e
8G	8c#	8e	.
.	.	.	32f#
.	.	.	32g
8F#	8d	8f#	8a
8F#	8A	8d	8dd
=7	=7	=7	=7
8G	8B	8b	8b
8E	8B	8g	8ee
8A	8A	8f#	8dd
8A	8A	8e	8cc#
=8	=8	=8	=8
8D	4D	4e	4cc#
8d	.	.	.
8D	8r	8f#	8dd
8r	8r	8r	8aa
=9	=9	=9	=9
8r	8r	8r	8.a
8e	8e	8g	.
.	.	.	32b
.	.	.	32cc
8d#	8d#	8f#	8b
8r	8r	8r	8bb
=10	=10	=10	=10
8r	8r	8r	8.f#
8D#	8f#	4B	.
.	.	.	32g
.	.	.	32a
8E	8e	.	8g
8C#	8A	8e	8gg
=11	=11	=11	=11
8D	8A	8d	8ff#
8F#	8A	8d	8dd
8G	8B	8d	8b
8B	8B	8d	8g
=12	=12	=12	=12
4A	4A	4d	4f#
8AA	4r	8c#	8e
8r	.	8r	8ee
=13	=13	=13	=13
8r	8r	8r	[12..A
8C#	8A	8e	.
.	.	.	96A]
.	.	.	32c#
.	.	.	32e
.	.	.	32g
8D	8A	8d	8f#
8r	8r	8r	8b
=14	=14	=14	=14
8r	8r	8r	8.e
8G	8e	8c#	.
.	.	.	32f#
.	.	.	32g
8F#	8f#	8d	8a
8F#	8d	8a 8d	8ddd
=15	=15	=15	=15
4G	4d	8b 8d	8bb
.	.	4r	8gg
8r	8r	.	8ee
8A	16g	8g	8cc#
.	16e	.	.
=16	=16	=16	=16
4D	4d	4f#	4dd
8r	8r	8r	8r
8A	8r	8r	8r
=17	=17	=17	=17
4.f	2r	4.r	8r
.	.	.	8a
.	.	.	8dd
8g	.	8b-	8cc#
=18	=18	=18	=18
8f	8r	4.a	8dd
8c#	8A	.	8ee
8d	8a	.	8ff
8B-	8b-	8dd	8gg
=19	=19	=19	=19
4.A	4.a	8dd	8ff
.	.	8cc#	8ee
.	.	8cc#	8ee
8BB-	8d	8g	8r
=20	=20	=20	=20
4AA	8d	8f	2r
.	8c#	8e	.
8r	8c#	8e	.
8A	8r	8r	.
=21	=21	=21	=21
4.g	2r	4.r	8r
.	.	.	8cc#
.	.	.	8bb-
8f	.	8A	8aa
=22	=22	=22	=22
8c#	8r	4a	8gg
8d	8d	.	8ff
8G	8G	8g	8ee
8G#	8G#	8f	8dd
=23	=23	=23	=23
4A	4A	8e	8cc#
.	.	8c#	8ee
8r	8r	8c#	8ee
8GG#	8F	8d	8r
=24	=24	=24	=24
4AA	8E	8c#	4.r
.	8C#	8e	.
8r	8C#	8e	.
8A	8r	8r	8r
=25	=25	=25	=25
4.a	4.r	4.r	8r
.	.	.	8cc
.	.	.	8ccc
8f#	8cc	8ee-	8aa
=26	=26	=26	=26
8f#	8cc	8ee-	8aa
8g	8b-	8dd	8bb-
8g	8b-	8dd	8bb-
8r	8cc	8ee-	8aa
=27	=27	=27	=27
4.r	8cc	8ee-	8aa
.	8b-	8dd	8gg
.	8b-	8dd	8gg
8g#	8b	8ff	8ddd
=28	=28	=28	=28
8g#	8b	8ff	8ddd
8a	8a	8ee	8ccc#
8a	8a	8ee	8ccc#
8r	8r	8gg	8bb-
=29	=29	=29	=29
8r	8r	8ee	8cc#
8G	8B-	4r	4r
8e	8g	.	.
8r	8r	8ff	8aa
=30	=30	=30	=30
8r	8r	8f	8dd
8F	8A	4r	4r
8d	8f	.	.
8D	8d	8a	8ff
=31	=31	=31	=31
4G	4G	4b-	8ee-
.	.	.	8gg
8A	8A	8f	8dd
8A	8A	8e	8cc#
=32	=32	=32	=32
8D	4D	4d	4dd
8d	.	.	.
8D	8r	8r	8r
8r	8r	8r	8dd
=33	=33	=33	=33
8r	4.r	4.r	8.d
8D	.	.	.
.	.	.	32f#
.	.	.	32a
8E	.	.	8g
8C#	8A	8e	8e
=34	=34	=34	=34
8D	8A	8d	8f#
8GG	8B	8e	8g
8AA	8A	8c#	8e
8C#	8A	8e	8a
=35	=35	=35	=35
8D	8A	8f#	8f#
8BB	8f#	8d	8b
8E	8e	8c#	8a
8E	8d	8B	8g#
=36	=36	=36	=36
8AA	4d	4B	4g#
8A	.	.	.
8AA	8c#	8A	8a
8r	8r	8r	8ee
=37	=37	=37	=37
8r	8r	8r	[12..A
8C#	8A	8e	.
.	.	.	96A]
.	.	.	32c#
.	.	.	32e
.	.	.	32g
8D	8A	8f#	8f#
8r	8r	8r	8b
=38	=38	=38	=38
8r	8r	8r	8.e
8G	8c#	8e	.
.	.	.	32f#
.	.	.	32g
8F#	8d	8f#	8a
8F#	8A	8d	8dd
=39	=39	=39	=39
8G	8B	8b	8b
8E	8B	8g	8ee
8A	8A	8f#	8dd
8A	8A	8e	8cc#
=40	=40	=40	=40
8D	4D	4e	4cc#
8d	.	.	.
8D	4r	8f#	8dd
8r	.	8r	8dd
=41	=41	=41	=41
8r	4.r	4.r	8d
8D	.	.	24d
.	.	.	24f#
.	.	.	24a
8E	.	.	24g
.	.	.	24e
.	.	.	24c#
8C#	8A	8e	24A
.	.	.	24e
.	.	.	24g
=42	=42	=42	=42
8D	8A	8d	8f#
8GG	8B	8e	24g
.	.	.	24a
.	.	.	24g
8AA	8A	8c#	8e
8C#	8A	8e	24a
.	.	.	24b
.	.	.	24a
=43	=43	=43	=43
8D	8A	8f#	24f#
.	.	.	24g#
.	.	.	24a
8BB	8f#	8d	24b
.	.	.	24cc#
.	.	.	24dd
8E	8e	8e	24cc#
.	.	.	24ee
.	.	.	24cc#
8E	8d	8B	24dd
.	.	.	24b
.	.	.	24g#
=44	=44	=44	=44
8AA	4d	4B	4g#
8A	.	.	.
8AA	8c#	8A	8a
8r	8r	8r	8ee
=45	=45	=45	=45
8r	8r	8r	24A
.	.	.	24c#
.	.	.	24d
8C#	8A	8e	24e
.	.	.	24f#
.	.	.	24g
8D	8A	8f#	8f#
8r	8r	8r	8b
=46	=46	=46	=46
8r	8r	8r	24c#
.	.	.	24d
.	.	.	24e
8G	8c#	8e	24f#
.	.	.	24g
.	.	.	24g#
8F#	8d	8f#	24a
.	.	.	24b
.	.	.	24cc#
8F#	8A	8d	24dd
.	.	.	24ee
.	.	.	24ff#
=47	=47	=47	=47
8G	8G	8b	24b
.	.	.	24ff#
.	.	.	24gg
8E	8e	8g	24bb
.	.	.	24gg
.	.	.	24ee
8A	8d	8a	24ff#
.	.	.	24aa
.	.	.	24ff#
8A	8A	8e	24gg
.	.	.	24ee
.	.	.	24cc#
=48	=48	=48	=48
8D	4D	4f#	4dd
8d	.	.	.
8D	4r	4r	8r
8r	.	.	8aa
=49	=49	=49	=49
8r	8r	8r	8.a
8e	8e	8g	.
.	.	.	32b
.	.	.	32cc
8d#	8d#	8f#	8b
8r	8r	8r	8bb
=50	=50	=50	=50
8r	8r	8r	8.f#
8D#	8f#	4B	.
.	.	.	32g
.	.	.	32a
8E	8e	.	8g
8C#	8A	8e	8gg
=51	=51	=51	=51
8D	8A	8d	8ff#
8F#	8A	8d	8dd
8G	8B	8d	8b
8B	8B	8d	8g
=52	=52	=52	=52
4A	4A	4d	4f#
8AA	4r	8c#	8e
8r	.	8r	8ee
=53	=53	=53	=53
8r	8r	8r	[12..A
8C#	8A	8e	.
.	.	.	96A]
.	.	.	32c#
.	.	.	32e
.	.	.	32g
8D	8A	8d	8f#
8r	8r	8r	8b
=54	=54	=54	=54
8r	8r	8r	8.e
8G	8e	8c#	.
.	.	.	32f#
.	.	.	32g
8F#	8f#	8d	8a
8F#	8d	8a 8d	8ddd
=55	=55	=55	=55
4G	4d	4b 4d	8bb
.	.	.	8gg
8r	8r	8r	8ee
8A	16g	8g	8cc#
.	16e	.	.
=56	=56	=56	=56
4D	4d	4f#	4dd
4r	4r	4r	8r
.	.	.	8aa
=57	=57	=57	=57
8r	8r	8r	8.a
8e	8e	8g	.
.	.	.	32b
.	.	.	32cc
8d#	8d#	8f#	24b
.	.	.	24cc#
.	.	.	24dd#
8r	8r	8r	24ee
.	.	.	24ff#
.	.	.	24gg
=58	=58	=58	=58
8r	8r	8r	24aa
.	.	.	24bb
.	.	.	24aa
8D#	8f#	4B	24gg
.	.	.	24ff#
.	.	.	24aa
8E	8e	.	24gg
.	.	.	24bb
.	.	.	24aa
8C#	8A	8e	24gg
.	.	.	24ff#
.	.	.	24ee
=59	=59	=59	=59
8D	8A	8d	24ff#
.	.	.	24aa
.	.	.	24gg
8F#	8A	8d	24ff#
.	.	.	24ee
.	.	.	24dd
8G	8B	8d	24cc#
.	.	.	24b
.	.	.	24a
8B	8B	8d	24g
.	.	.	24f#
.	.	.	24e
=60	=60	=60	=60
4A	4A	4f#	4d
8AA	4r	8e	8c#
8r	.	8r	8ee
=61	=61	=61	=61
8r	8r	8r	24A
.	.	.	24c#
.	.	.	24d
8C#	8A	8e	24e
.	.	.	24f#
.	.	.	24g
8D	8A	8d	8f#
8r	8r	8r	8b
=62	=62	=62	=62
8r	8r	8r	24c#
.	.	.	24d
.	.	.	24e
8G	8e	8c#	24f#
.	.	.	24g
.	.	.	24g#
8F#	8f#	8A	24a
.	.	.	24b
.	.	.	24cc#
8F#	8d	8a 8d	24dd
.	.	.	24ee
.	.	.	24ff#
=63	=63	=63	=63
4G	4d	4b 4d	24b
.	.	.	24ff#
.	.	.	24gg
.	.	.	24bb
.	.	.	24gg
.	.	.	24ee
8r	8r	8r	24ff#
.	.	.	24aa
.	.	.	24ff#
8A	8e	8g	24gg
.	.	.	24ee
.	.	.	24cc#
=64	=64	=64	=64
4D	4d	4f#	4dd
8r	4r	4r	4r
8A	.	.	.
=65	=65	=65	=65
4.f	2r	8r	4.r
.	.	8a	.
.	.	8dd	.
8g	.	8cc#	8a
=66	=66	=66	=66
8f	8r	8dd	4.aa
8c#	8A	8ee	.
8d	8a	8ff	.
8B-	8b-	8gg	8ddd
=67	=67	=67	=67
4A	4.a	8ff	8ddd
.	.	8ee	8ccc#
4r	.	8ee	8ccc#
.	8g#	8dd	8fff
=68	=68	=68	=68
4.r	8g#	8dd	8fff
.	8a	8cc#	8eee
.	8a	8cc#	8eee
8A	8r	8r	8r
=69	=69	=69	=69
4.g	2r	8r	4.r
.	.	8cc#	.
.	.	8bb-	.
8f	.	8aa	8aa
=70	=70	=70	=70
8c#	2r	8gg	4aaa
8d	.	8ff	.
8G	.	8ee	8ggg
8G#	.	8dd	8fff
=71	=71	=71	=71
4A	8r	4.cc#	8eee
.	8A	.	8aaa
4r	8a	.	8aaa
.	8g#	8dd	8fff
=72	=72	=72	=72
4.r	4a	4cc#	8eee
.	.	.	8ccc#
.	8r	8r	8aa
8A	8r	8r	8r
=73	=73	=73	=73
4.a	4.r	8r	8r
.	.	8cc	8aa
.	.	8ee-	8ccc
8f#	8cc	8aa	8eee-
=74	=74	=74	=74
8f#	8cc	8aa	8eee-
8g	8b-	8bb-	8ddd
8g	8b-	8bb-	8ddd
8a	8ee-	8ff#	8ccc
=75	=75	=75	=75
8a	8ee-	8ff#	8ccc
8b-	8dd	8gg	8bb-
8b-	8dd	8gg	8bb-
8r	8g#	8ddd	8fff
=76	=76	=76	=76
2r	8g#	8ddd	8fff
.	8a	8ccc#	8eee
.	8a	8ccc#	8eee
.	8r	8r	8ggg
=77	=77	=77	=77
8r	8r	8r	4ccc#
8g	8b-	8ee	.
8g	8b-	8ee	8r
8r	8r	8r	8aa
=78	=78	=78	=78
8r	8r	8r	8fff
8f	8a	8dd	4r
8f	8a	8dd	.
8d	8a	8dd	[8fff
=79	=79	=79	=79
4g	4b-	4b-	8fff]
.	.	.	8eee
8r	8r	8r	8ggg
8A	8g	8ee	8ccc#
=80	=80	=80	=80
4d	4f	4dd	4ddd
8r	8r	8r	8r
8r	8r	8r	8dd
=81	=81	=81	=81
8r	4.r	4.r	8.d
8D	.	.	.
.	.	.	32f#
.	.	.	32a
8E	.	.	8g
8C#	8A	8e	8e
=82	=82	=82	=82
8D	8A	8d	8f#
8GG	8B	8e	8g
8AA	8A	8c#	8e
8C#	8A	8e	8a
=83	=83	=83	=83
8D	8A	8f#	8f#
8BB	8f#	8d	8b
8E	8e	8c#	8a
8E	8d	8B	8g#
=84	=84	=84	=84
8AA	4d	4B	4g#
8A	.	.	.
8AA	8c#	8A	8a
8r	8r	8r	8ee
=85	=85	=85	=85
8r	8r	8r	[12..A
8C#	8A	8e	.
.	.	.	96A]
.	.	.	32c#
.	.	.	32e
.	.	.	32g
8D	8A	8d	8f#
8r	8r	8r	8b
=86	=86	=86	=86
8r	8r	8r	8.e
8G	8c#	8e	.
.	.	.	32f#
.	.	.	32g
8F#	8d	8f#	8a
8F#	8A	8d	8dd
=87	=87	=87	=87
8G	8B	8b	8b
8E	8B	8g	8ee
8A	8A	8f#	8dd
8A	8A	8e	8cc#
=88	=88	=88	=88
8D	4D	4e	4cc#
8d	.	.	.
8D	4r	8f#	8dd
8r	.	8r	8ddd
=89	=89	=89	=89
8r	4.r	4.r	8.dd
8D	.	.	.
.	.	.	32ff#
.	.	.	32aa
8E	.	.	16gg
.	.	.	16gg
8C#	8A	8e	16r
.	.	.	16ee
=90	=90	=90	=90
8D	8A	8d	16ff#
.	.	.	16ff#
8GG	8B	8e	16r
.	.	.	16gg
8AA	8A	8c#	16ee
.	.	.	16ee
8C#	8A	8e	16r
.	.	.	16aa
=91	=91	=91	=91
8D	8A	8f#	16ff#
.	.	.	16ff#
8BB	8d	8f#	16r
.	.	.	16ddd
8E	8e	8e	16r
.	.	.	16ccc#
8E	8d	8B	16r
.	.	.	16gg#
=92	=92	=92	=92
8AA	4d	4B	4gg#
8A	.	.	.
8AA	8c#	8A	8aa
8r	8r	8r	8eee
=93	=93	=93	=93
8r	8r	8r	8.ee
8C#	16g	8A	.
.	16e	.	32ff#
.	.	.	32gg
8D	8d	8f#	16ff#
.	.	.	16ff#
8DD	8r	8r	16r
.	.	.	16bb
=94	=94	=94	=94
8r	8r	8r	16ee
.	.	.	16ee
8G	8a	8cc#	16r
.	.	.	16aa
8r	8r	8r	16dd
.	.	.	16dd
8F#	8a	8dd	16r
.	.	.	16ddd
=95	=95	=95	=95
8G	8b	8d	16r
.	.	.	16bb
8E	8e	8b	16r
.	.	.	16gg
8A	8a	8a	16r
.	.	.	16ff#
8AA	8A	8g	16aa
.	.	.	16cc#
=96	=96	=96	=96
8D	8d	4g	4ee
8AA	8A	.	.
8DD	8D	8f#	8dd
8r	8r	8r	8aa
=97	=97	=97	=97
8r	8r	8r	8.a
8e	8e	8g	.
.	.	.	32b
.	.	.	32cc
8d#	8d#	8f#	8b
8r	8r	8r	8bb
=98	=98	=98	=98
8r	8r	8r	8.f#
8D#	8f#	4B	.
.	.	.	32g
.	.	.	32a
8E	8e	.	8g
8C#	8A	8e	8gg
=99	=99	=99	=99
8D	8A	8d	8ff#
8F#	8A	8d	8dd
8G	8B	8d	8b
8B	8B	8d	8g
=100	=100	=100	=100
4A	4A	4d	4f#
8AA	4r	8c#	8e
8r	.	8r	8ee
=101	=101	=101	=101
8r	8r	8r	8A
8C#	8A	8e	32A
.	.	.	32c#
.	.	.	32e
.	.	.	32g
8D	8A	8d	8f#
8r	8r	8r	8b
=102	=102	=102	=102
8r	8r	8r	8.e
8G	8e	8c#	.
.	.	.	32f#
.	.	.	32g
8F#	8f#	8d	8a
8F#	8d	8a 8d	8ddd
=103	=103	=103	=103
4G	4d	4b 4d	8bb
.	.	.	8gg
8r	8r	8r	8ee
8A	16g	8g	8cc#
.	16e	.	.
=104	=104	=104	=104
4D	4d	4f#	4dd
4r	4r	4r	8r
.	.	.	8aa
=105	=105	=105	=105
8r	8r	8r	8.a
8e	8e	8g	.
.	.	.	32b
.	.	.	32cc
8d#	8d#	8f#	16b
.	.	.	16b
8B	8r	8r	16r
.	.	.	16bb
=106	=106	=106	=106
8r	8r	8r	16ff#
.	.	.	16ff#
8D#	8f#	8B	16r
.	.	.	16aa
8E	8e	8B	16gg
.	.	.	16gg
8C#	8A	8ee	16r
.	.	.	16ggg
=107	=107	=107	=107
8D	8A	8dd	16r
.	.	.	16fff#
8F#	8A	8dd	16r
.	.	.	16ddd
8G	8B	8dd	16r
.	.	.	16bb
8B	8b	8dd	16r
.	.	.	16gg
=108	=108	=108	=108
4A	4a	4dd	8.ff#
.	.	.	32gg
.	.	.	32ff#
8AA	4r	8cc#	8ee
8r	.	8r	8eee
=109	=109	=109	=109
8r	8r	8r	8.ee
8c#	8e	8a	.
.	.	.	32ff#
.	.	.	32gg
8d	8d	8a	16ff#
.	.	.	16ff#
8D	8r	8r	16r
.	.	.	16bb
=110	=110	=110	=110
8r	8r	8r	16ee
.	.	.	16ee
8G	8a	8cc#	16r
.	.	.	16aa
8r	8r	8r	16dd
.	.	.	16dd
8F#	8a	8dd	16r
.	.	.	16b
=111	=111	=111	=111
8r	8r	8r	16e
.	.	.	16e
8GG	8A	8c#	16r
.	.	.	16a
8r	8r	8r	16d
.	.	.	16d
8FF#	8A	8d	8r
=112	=112	=112	=112
4.r	4.r	4.r	4.r
8F#	8f#	8a 8d	8ddd
=113	=113	=113	=113
4G	4g	4b 4d	8bb
.	.	.	8gg
8r	8r	8r	8ee
8AA	8A 8e	8e 8a	8cc# 8e
=114	=114	=114	=114
4DD	4f# 4A	4f# 4a	4dd 4d
4r	4r	4r	4r
==	==	==	==
*-	*-	*-	*-
!!!RWG1: This file contains only pitch and duration data.
!!!RWG2: Transposing instruments are not transposed.
!!!RWG3: Spines may have incompatible meters.
!!!RWG4: Durations of rests and tied notes may be interpreted.
!!!RWG: Key is interpreted using the Humdrum key tool.
!!!GTL: 6 Quators ("Jungfernquartette")
!!!AFT: stage1
!!!END: 1997/04/15
!!!KEY: 3614315738
!!!EMD: Converted from MuseData to Humdrum Dec 16, 2000, by Andreas Kornstaedt using muse2kern.
!!!EMD: Manual editing by Craig Sapp, Nov 2001
